X:772
T:Tripping Upstairs
S:Sessions
O:Ireland
Z:Nigel Gatherer
M:6/8
L:1/8
K:D
z | FAA GBB | FAd fed | cBc ABc | dfe dAG |
    FAA GBB | FAd fed | cBc ABc | dfe d2 :|
c | dBB f3  | fgf fed | cAA eAA | efe edc |
    dBB f3  | fgf fed | cAA ABc | dfe d2 :|]
